X:1
T:O cruaulté
T:Clément Janequin
T:Source  : Livre V de 25 chansons nouvelles à 4 parties---Paris---P.Attaingnant---1540. Editor : André Vierendeels (10/05/18). Notes : Original clefs : C1, C3, C4, F4 Original note values have been halved Editorial accidentals above the staff
T:O cruaulté
T:©
T:©
T:©
C:Clément Janequin
Z:©
%%score [ 1 [ 2 3 ] 4 ]
L:1/8
Q:1/4=120
M:2/2
K:F
V:1 treble nm="Alto" snm="A"
V:2 treble-8 nm="Tenor 1" snm="T 1"
V:3 treble-8 nm="Tenor 2" snm="T 2"
V:4 bass nm="Bass" snm="B"
V:1
 z4 A4- | A2 G2 F4 | E4 z4 | z2 D2 F3 D | E4 F4 | G4 B4 | A4 A4 | G4 z4 | z2 A2 c2 c2 | B2 B2 A4- | %10
w: O|_ cru- aul-|té|lo- gé- e'en|grant beaul-|té, O|grant beaul-|té|qui lo- ges|cru- aul- té,|
 A4 c4 | A2 A2 F2 F2 | B6 A2 | G2 F2 G4- | G2 c2 c2 c2 | A4 z2 A2 | A2 A2 F2 F2 | B6 A2 | %18
w: _ quant|ma dou- leur ia-|mais ne|sen- ti- ras,|_ quant ma dou-|leur, quant|ma dou- leur ia-|mais ne|
 G2 F2 G4- | G4 A4 | A4 c4 | B3 A/G/ A2 A2 | G2 c2 c2 B2 | c8 | B8 | A4 A4 | G2 G2 B2 B2 | %27
w: sen- ti- ras,|_ au|moins un|iour, _ _ _ pen-|se'à ma loy- aul-|té,|in|gra- te'a-|lors, in gra- te'a-|
 F3 G AB c2- | cB/A/GA B3 A/G/ | FEFG A2 C2 | D2 F2 F2 ED | E4 z2 E2 | E2 E2 D2 C2 | D2 F2 F2 E2 | %34
w: lors _ _ _ _|_ _ _ _ _ _ _ _|* * * * * peult|es- tre te di- *|ras, in-|gra- te'a- lors peult|es- tre te di-|
 F4 z2 E2 | E2 E2 D2 C2 | D2 F2 F2 E2 | F8 |] %38
w: ras, in-|gra- te'a- lors peult|es- tre te di-|ras.|
V:2
 z4 f4- | f2 e2 d4 | c2 c2 dc de | f3 e dc d2- | dc c2 d4 | e4 f4 | c4 d4 | e2 e2 g2 g2 | %8
w: O|_ cru- aul-|té lo- gé- * e'en _|grant _ _ _ _|_ _ _ beaul-|té, O|grant beaul-|té qui lo- ges|
 f2 f2 e2 e2 | g2 g2 f2 f2 | e2 e2 e2 f2 | c2 c2 d4- | d2 d2 d4- | d2 c2 d2 d2 | e2 e2 e2 e2 | %15
w: cru- aul- té, qui|lo- ges cru- aul-|té, quant ma dou-|leur ia- mais,|_ ia- mais|_ ne sen- ti-|ras, quant ma dou-|
 c2 c2 f4- | f2 e2 d2 d2 | f4 z2 d2 | d2 c2 d2 d2 | e4 c4 | c4 e4 | dcde f2 f2 | e2 c2 d2 d2 | %23
w: leur ia- mais|_ ne sen- ti-|ras, ia-|mais ne sen- ti-|ras, au|moins un|iour, _ _ _ _ pen-|se'à ma loy- aul-|
 c4 e4 | g2 g2 f4- | f2 f2 c3 d | e2 e2 d4- | d2 f2 c3 d | e2 e2 d4 | z2 A2 A2 A2 | A3 B c2 c2 | %31
w: té, in-|gra- te'a- lors|_ peult es- tre|te- di- ras,|_ peult es- tre|te di- ras,|peult es- tre|te di- ras, in-|
 c2 c2 G4 | z2 g2 f2 e2 | d2 B2 c2 c2 | c2 c2 F2 z2 | g2 gg f2 e2 | d2 B2 c2 c2 | c8 |] %38
w: gra- te'a- lors|peult es- tre|te di- ras, in-|gra- te'a- lors|in gra- te'a- lors peult|es- tre te di-|as.|
V:3
 d6 c2 | c4 A2 A2 | A2 A2 B2 B2 | A4 z2 F2 | A2 A2 A2 A2 | c4 d4 | z8 | c4 B2 B2 | A4 z4 | %9
w: O cru-|aul- té, lo-|gé- e'en grant beaul-|té, O|grant beaul- té qui|lo- ges,||O grant beaul|té|
 z2 d2 d2 d2 | c2 c2 A4 | c2 A2 A2 F2- | F2 F2 G2 A2 | B2 c4 B2 | c3 B AG A2- | A2 A2 d2 d2 | %16
w: qui lo- ges|cru- aul- té|quant ma dou- leur|_ ia- mais ne|sen- * ti-|ras, _ _ _ _|_ quant ma dou-|
 c4 z2 A2 | d4 z2 A2 |"^-natural" B2 c2 c2 B2 | c4 F4 | F4 C4 | G4 z2 F2 | c2 A2 G2 G2 | %23
w: leur ia-|mais ne|sen- ti- ras, au|moins un|_ _|iour, pen-|se'à ma loy- aul-|
 C2 A2 c2 c2 | GABc d3 c/B/ | cBcd A2 A2 | c2 c2 GABc | d2 d2 A3 B | c2 c2 F2 B2 | A2 F2 c2 E2 | %30
w: té, in- gra- te'a-|lors _ _ _ _ _ _|_ _ _ _ _ in-|gra- te'a- lors _ _ _|_ peult es- tre|te di- ras, in|gra- te'a- lors peult|
 F3 G A2 A2 | G4 z2 c2 | c2 c2 A3 c | BAGF G2 G2 | F2 A2 A2 A2 | GFGA B2 c2 | BAGF G2 G2 | F8 |] %38
w: es- tre te di-|ras, in|gra- te'a- lors peult|es- * * * * stre|te di- ras, peult|es- * * * * tre|te _ _ _ _ di-|ras.|
V:4
 z4 F,4- | F,2 C,2 D,4 | A,,4 G,,4 | D,3 C, B,,2 B,,2 | A,,4 D,4 | C,2 C,2 B,,C,D,E, | %6
w: O|_ cru- aul-|té lo-|gé- e'en grant beaul-|té, O|grant beaul- té, _ _ _|
 F,2 F,2 F,2 F,2 | C,3 B,,/A,,/ G,,A,,B,,C, | D,2 D,2 A,2 A,2 | G,2 G,2 D,4 | A,2 A,2 A,2 F,2- | %11
w: _ O grant beaul-|té _ _ _ _ _ _|_ qui lo- ges|cru- aul- té,|quant ma dou- leur,|
 F,2 F,2 D,2 D,2 | B,,4 z2 F,2 | G,2 A,2 G,2 G,2 | C,4 z2 C,2 | F,2 F,2 D,2 D,2 | %16
w: _ quant ma dou-|leur ia-|mais ne sen- ti-|ras, quant|ma dou- leur ia-|
 A,2 A,,2 D,2 D,2 | B,,2 B,,2 F,3 F, |"^-natural" G,2 A,2 G,2 G,2 | C,4 z4 | z8 | z8 | z8 | z8 | %24
w: mais ne sen- ti-|ras, ia- mais _|_ ne sen- ti-|ras,|||||
 z2 G,2 B,2 B,2 | F,8 | z4 z2 G,2 | D,2 D,2 F,2 F,2 | C,2 C,2 B,,2 G,,2 | D,2 D,2 A,,2 A,,2 | %30
w: in- gra- te'a-|lors,|peult|es- tre te di-|ras, in- gra- te'a-|lors peult es- tre|
 D,2 D,2 C,4- | C,4 C,4 | C,2 C,2 D,2 A,,2 | B,,2 D,2 C,2 C,2 | F,,4 z2 C,2 | C,2 C,2 D,2 A,,2 | %36
w: te di- ras,|_ in-|gra- te'a- mlors peult|es- tre te di-|ras, in-|gra- te'a- lors peult|
 B,,2 D,2 C,2 C,2 | F,,8 |] %38
w: es- tre te di-|ras.|

